src/16/panel/xfce4-fsguard-plugin-urgent.svg

<svg xmlns="http://www.w3.org/2000/svg" width="16" height="16" version="1.1">
 <defs>
  <style id="current-color-scheme" type="text/css">
   .ColorScheme-Text { color:#dfdfdf; } .ColorScheme-Highlight { color:#4285f4; }
  </style>
 </defs>
 <path style="fill:currentColor" class="ColorScheme-Text" d="M 3 1 C 2.446 1 2 1.446 2 2 L 2 14 C 2 14.554 2.446 15 3 15 L 8.0214844 15 C 8.0462024 14.774521 8.1008536 14.553107 8.2070312 14.347656 L 9.6015625 11.642578 L 10.318359 10.253906 A 4 4 0 0 1 8 11 L 4 11 L 4 7 A 4 4 0 0 1 8 3 A 4 4 0 0 1 12 7 A 4 4 0 0 1 11.828125 8.1601562 C 12.00786 8.0781574 12.197743 8.0140729 12.404297 8.0019531 L 12.40625 8.0019531 L 12.408203 8.0019531 C 12.468493 7.9986131 12.527601 7.9986131 12.587891 8.0019531 C 13.2052 8.0349328 13.731724 8.4173506 14 8.9316406 L 14 2 C 14 1.446 13.554 1 13 1 L 3 1 z M 8 5 A 2 2 0 0 0 6 7 A 2 2 0 0 0 8 9 A 2 2 0 0 0 10 7 A 2 2 0 0 0 8 5 z"/>
 <path style="fill:currentColor" class="ColorScheme-Highlight" d="M 12.462891 9 A 0.710646 0.79561028 0 0 0 11.884766 9.3964844 L 10.490234 12.101562 L 9.0957031 14.806641 A 0.710646 0.79561028 0 0 0 9 15.185547 A 0.710646 0.79561028 0 0 0 9.7109375 16 L 12.5 16 L 15.289062 16 A 0.710646 0.79561028 0 0 0 15.904297 14.806641 L 14.509766 12.101562 L 13.115234 9.3964844 A 0.710646 0.79561028 0 0 0 12.533203 9 A 0.710646 0.79561028 0 0 0 12.462891 9 z M 12 10 L 13 10 L 13 13 L 12 13 L 12 10 z M 12 14 L 13 14 L 13 15 L 12 15 L 12 14 z"/>
</svg>

<svg xmlns="http://www.w3.org/2000/svg" width="16" height="16"><path d="M3 1c-.554 0-1 .446-1 1v12c0 .554.446 1 1 1h5.021c.025-.225.08-.447.186-.652l1.395-2.705.716-1.39A4 4 0 0 1 8 11H4V7a4 4 0 0 1 4-4 4 4 0 0 1 4 4 4 4 0 0 1-.172 1.16c.18-.082.37-.146.576-.158h.004c.06-.003.12-.003.18 0a1.715 1.715 0 0 1 1.412.93V2c0-.554-.446-1-1-1H3zm5 4a2 2 0 0 0-2 2 2 2 0 0 0 2 2 2 2 0 0 0 2-2 2 2 0 0 0-2-2z" fill="currentColor" color="#bebebe"/><path d="M12.463 9a.71.796 0 0 0-.578.396l-1.395 2.706-1.394 2.705a.71.796 0 0 0-.096.379.71.796 0 0 0 .71.814h5.58a.71.796 0 0 0 .614-1.193l-1.394-2.705-1.395-2.706A.71.796 0 0 0 12.533 9a.71.796 0 0 0-.07 0zM12 10h1v3h-1v-3zm0 4h1v1h-1v-1z" fill="currentColor" color="#5294e2"/></svg>
